!!!OTL: Oh! Susanna
!!!COM: Foster, Stephen
!!!ODT: 1848
!!!YOR: The Folksong Fake Book
!!!YOY: 2000
!!!AST: Folk song
!!!YEC: Brian Luke, 2001
**kern	**harm
*k[]	*k[]
*M2/4	*M2/4
*C:	*C:
*>A	*>A
16c	.
16d	.
=1	=
8e	I
8g	.
8.g	.
16a	.
=2	=2
8g	.
8e	.
8c	.
8d	.
=3	=3
8e	V7/V
8e	.
8d	.
8c	.
=4	=4
4.d	V7;
*>A'	*>A'
16c	.
16d	.
=5	=5
8e	I
8g	.
8.g	.
16a	.
=6	=6
8g	.
8e	.
8c	.
8d	.
=7	=7
8e	V7
8e	.
8d	.
8d	.
=8	=8
2c	I;
*>B	*>B
=9	=9
4f	IV
4f	.
=10	=10
8a	.
4a	.
8a	.
=11	=11
8g	I
8g	.
8e	V7/V
8c	.
=12	=12
4.d	V7
*>A'	*>A'
16c	.
16d	.
=13	=13
8e	I
8g	.
8.g	.
16a	.
=14	=14
8g	.
8e	.
8c	.
8d	.
=15	=15
8e	V7
8e	.
8d	.
8d	.
=16	=16
4.c	I;
*-	*-
